!!!AGN: Motet
!!!SCT: Sherr (1989)
!!!voices: 5
!!!COM: Renaldo
!!!OTL: Regina celi
**kern	**kern	**kern	**kern	**kern
*part5	*part4	*part3	*part2	*part1
*staff5	*staff4	*staff3	*staff2	*staff1
*I"Bassus	*I"Tenor II	*I"Tenor I	*I"Altus	*I"Superius
*I'B	*I'T. II	*I'T. I	*I'A	*I'S
*clefF4	*clefGv2	*clefGv2	*clefG2	*clefG2
*k[b-]	*k[b-]	*k[b-]	*k[b-]	*k[b-]
*F:	*F:	*F:	*F:	*F:
*M2/1	*M2/1	*M2/1	*M2/1	*M2/1
*met(C|)	*met(C|)	*met(C|)	*met(C|)	*met(C|)
!!section: Prima pars: Regina celi
!!!OMD: Prima pars: Regina celi
1C	1r	0r	0r	0r
1D	1F	.	.	.
=1	=1	=1	=1	=1
1C	1G	0r	0r	0r
1D	1F	.	.	.
=2	=2	=2	=2	=2
1E	1G	1r	0r	0r
[1F	[1A	1c	.	.
=3	=3	=3	=3	=3
2F]	1A]	1d	0r	1f
4E	.	.	.	.
4D	.	.	.	.
1E	2r	1c	.	1g
.	2G	.	.	.
=4	=4	=4	=4	=4
1D	1A	1d	0r	1f
1C	[1c	1e	.	1g
=5	=5	=5	=5	=5
1.F	1c]	2.f	0r	0a
.	.	4e	.	.
.	2r	2d	.	.
2E	[2c	2c	.	.
=6	=6	=6	=6	=6
1D	2c]	1d	0r	0r
.	2B-y	.	.	.
1F	1A	2r	.	.
.	.	[2f	.	.
=7	=7	=7	=7	=7
1C	1G	2f]	0r	2r
.	.	2e	.	1cc
2r	1B-y	1d	.	.
2G	.	.	.	2b-y
=8	=8	=8	=8	=8
2F	2c	1f	0r	1a
2D	2d	.	.	.
2E	2G	2e	.	2g
2F	2c	[2A	.	[2a
=9	=9	=9	=9	=9
1D	1F	2A]	0r	4a]
.	.	.	.	4g
.	.	2B-y	.	1f
1C	1G	1c	.	.
.	.	.	.	2e
=10	=10	=10	=10	=10
1F	2.F	2A	0cc	1f
.	.	1c	.	.
.	4G	.	.	.
1r	2A	.	.	2r
.	2B-y	2B-y	.	[2g
=11	=11	=11	=11	=11
1r	2c	1A	1cc	2g]
.	2F	.	.	2f
1C	1c	[1G	1cc	1e
=12	=12	=12	=12	=12
0G	1B-y	2G]	0dd	2d
.	.	1d	.	1g
.	[1G	.	.	.
.	.	2B-y	.	2f
=13	=13	=13	=13	=13
2.C	2G]	1c	0cc	2.e
.	1c	.	.	.
4D	.	.	.	4f
2E	.	1c	.	2g
2F	2A	.	.	2a
=14	=14	=14	=14	=14
2G	2B-y	1r	2r	1g
1C	2.c	.	1cc	.
.	.	[1c	.	2e
.	4B-y	.	.	.
[2F	4A	.	2cc	[2a
.	4G	.	.	.
=15	=15	=15	=15	=15
2F]	2F	1c]	1a	2a]
2E	2G	.	.	2g
2D	1d	1r	1b-y	2f
2G	.	.	.	2g
=16	=16	=16	=16	=16
2.C	2r	1c	[0cc	2.e
.	1G	.	.	.
4D	.	.	.	4f
2E	.	1c	.	2g
2F	2F	.	.	2a
=17	=17	=17	=17	=17
2E	2G	0c	0cc_	2g
2F	2A	.	.	1f
1C	1G	.	.	.
.	.	.	.	2e
=18	=18	=18	=18	=18
1F	2.F	2r	0cc]	1f
.	.	2F	.	.
.	4G	.	.	.
2r	4A	1c	.	2.e
.	4B-y	.	.	.
2C	[2c	.	.	.
.	.	.	.	4f
=19	=19	=19	=19	=19
1G	2c]	1d	0r	1g
.	2BnXi	.	.	.
1A	1c	2.c	.	2.e
.	.	4d	.	4f
=20	=20	=20	=20	=20
2G	0r	2e	0r	2g
2.F	.	2f	.	2.a
.	.	2c	.	.
4E	.	.	.	4g
4D	.	2d	.	4f
4C	.	.	.	4e
=21	=21	=21	=21	=21
1D	2r	2.A	0r	1f
.	2F	.	.	.
.	.	8GL	.	.
.	.	8FJ	.	.
1C	1c	1G	.	1e
=22	=22	=22	=22	=22
2BB-y	1d	2r	0r	1f
2.F	.	2D	.	.
.	1c	1A	.	1cc
4E	.	.	.	.
4D	.	.	.	.
4C	.	.	.	.
=23	=23	=23	=23	=23
1BB-y	2r	1B-y	0r	2.dd
.	2F	.	.	.
.	.	.	.	4cc
2r	1c	4A	.	4a
.	.	4G	.	4b-y
2C	.	2g	.	[2cc
=24	=24	=24	=24	=24
1G	1d	1g	0r	2cc]
.	.	.	.	2bnXi
1A	2c	2r	.	1cc
.	2A	2c	.	.
=25	=25	=25	=25	=25
1G	1B-y	1g	0r	1r
2.F	2A	2.a	.	1f
.	[2F	.	.	.
4E	.	4g	.	.
=26	=26	=26	=26	=26
2D	4F]	2f	0r	1.f
.	4G	.	.	.
2C	2A	2e	.	.
2BB-y	2B-y	2d	.	.
2C	[2G	[2c	.	2e
=27	=27	=27	=27	=27
1D	2G]	2c]	1r	2.f
.	2F	2B-y	.	.
.	.	.	.	4g
1C	1G	2.c	[1cc	2.e
.	.	4d	.	4f
=28	=28	=28	=28	=28
2r	2.c	2e	1cc]	2g
1F	.	2f	.	2a
.	4B-y	.	.	.
.	2A	2c	1cc	2f
2E	2G	2e	.	2g
=29	=29	=29	=29	=29
2D	1F	1.f	1dd	1a
2C	.	.	.	.
[1BB-y	[1B-y	.	[1dd	2.d
.	.	2e	.	.
.	.	.	.	4e
=30	=30	=30	=30	=30
1BB-]	2B-]	1d	1dd]	1f
.	2A	.	.	.
[1C	1G	[1e	[1cc	2r
.	.	.	.	[2g
=31	=31	=31	=31	=31
1C]	2.c	1e]	1cc]	2g]
.	.	.	.	2e
.	4d	.	.	.
1C	1e	2r	1r	1g
.	.	[2c	.	.
=32	=32	=32	=32	=32
1F	1f	2c]	0r	[0a
.	.	2A	.	.
2r	2.F	1c	.	.
[2F	.	.	.	.
.	4G	.	.	.
=33	=33	=33	=33	=33
2F]	2A	2.d	0r	0a]
2D	2F	.	.	.
.	.	4c	.	.
1F	1c	2A	.	.
.	.	[2f	.	.
=34	=34	=34	=34	=34
1G	2r	2f]	0r	0g
.	1B-y	2e	.	.
[1G	.	2.d	.	.
.	2G	.	.	.
.	.	4c	.	.
=35	=35	=35	=35	=35
1G]	1B-y	1d	0r	2r
.	.	.	.	1g
2.C	1c	[1e	.	.
.	.	.	.	2e
4D	.	.	.	.
=36	=36	=36	=36	=36
1E	2r	1e]	0r	1g
.	1c	.	.	.
1F	.	2c	.	1a
.	2F	2d	.	.
=37	=37	=37	=37	=37
0C	0G	2e	1.cc	1r
.	.	1f	.	.
.	.	.	.	2r
.	.	4e	2cc	2g
.	.	4d	.	.
=38	=38	=38	=38	=38
2.F	1A	1c	1a	2f
.	.	.	.	1a
4E	.	.	.	.
1D	1F	1d	1b-y	.
.	.	.	.	4g
.	.	.	.	4f
=39	=39	=39	=39	=39
2.C	1.G	1r	[0ccl	2.e
4D	.	.	.	4f
2E	.	2r	.	2g
2F	2F	2f	.	2a
=40	=40	=40	=40	=40
2C	2G	2e	0cc_	2g
2.F	2F	2f	.	2.a
.	1A	[1c	.	.
4E	.	.	.	4g
2F	.	.	.	[2f
=41	=41	=41	=41	=41
1C	1G	1c]	0cc_	2f]
.	.	.	.	2e
[1FFl	[1Fl	[1Al	.	[1fl
=42	=42	=42	=42	=42
00FF]	00F]	00A]	00cc]	00f]
==	==	==	==	==
*-	*-	*-	*-	*-
!!!system-decoration: [*]
!!!RDF**kern: i = editorial accidental
!!!RDF**kern: l = terminal long
!!!ENC: Benjamin Ory
!!!END: 2021/1/9
!!!EED: Benjamin Ory
!!!EEV: 2022/3/16
!!!YEC: Copyright 2021 Benjamin Ory, All Rights Reserved
!!!ONB: Translated from MusicXML on 2021/04/27